pattern-library/svg-sprites/svgs/instagram.svg

<?xml version="1.0" encoding="utf-8"?>
<!-- Generated by IcoMoon.io -->
<!DOCTYPE svg PUBLIC "-//W3C//DTD SVG 1.1//EN" "http://www.w3.org/Graphics/SVG/1.1/DTD/svg11.dtd">
<svg version="1.1" xmlns="http://www.w3.org/2000/svg" xmlns:xlink="http://www.w3.org/1999/xlink" width="28" height="28" viewBox="0 0 28 28">
<path d="M21.281 22.281v-10.125h-2.109q0.313 0.984 0.313 2.047 0 1.969-1 3.633t-2.719 2.633-3.75 0.969q-3.078 0-5.266-2.117t-2.188-5.117q0-1.062 0.313-2.047h-2.203v10.125q0 0.406 0.273 0.68t0.68 0.273h16.703q0.391 0 0.672-0.273t0.281-0.68zM16.844 13.953q0-1.937-1.414-3.305t-3.414-1.367q-1.984 0-3.398 1.367t-1.414 3.305 1.414 3.305 3.398 1.367q2 0 3.414-1.367t1.414-3.305zM21.281 8.328v-2.578q0-0.438-0.313-0.758t-0.766-0.32h-2.719q-0.453 0-0.766 0.32t-0.313 0.758v2.578q0 0.453 0.313 0.766t0.766 0.313h2.719q0.453 0 0.766-0.313t0.313-0.766zM24 5.078v17.844q0 1.266-0.906 2.172t-2.172 0.906h-17.844q-1.266 0-2.172-0.906t-0.906-2.172v-17.844q0-1.266 0.906-2.172t2.172-0.906h17.844q1.266 0 2.172 0.906t0.906 2.172z"></path>
</svg>

<?xml version="1.0" encoding="utf-8"?>
<!-- Generator: Adobe Illustrator 16.0.0, SVG Export Plug-In . SVG Version: 6.00 Build 0)  -->
<!DOCTYPE svg PUBLIC "-//W3C//DTD SVG 1.1//EN" "http://www.w3.org/Graphics/SVG/1.1/DTD/svg11.dtd">
<svg version="1.1" id="Layer_1" xmlns="http://www.w3.org/2000/svg" xmlns:xlink="http://www.w3.org/1999/xlink" x="0px" y="0px"
	 width="24px" height="24px" viewBox="0 2 24 24" enable-background="new 0 2 24 24" xml:space="preserve">
<path d="M21.281,22.281V12.156h-2.109c0.209,0.656,0.312,1.338,0.312,2.047c0,1.312-0.332,2.523-1,3.633
	c-0.666,1.109-1.572,1.987-2.719,2.633c-1.146,0.646-2.396,0.969-3.75,0.969c-2.052,0-3.808-0.705-5.266-2.117
	c-1.458-1.41-2.188-3.116-2.188-5.116c0-0.708,0.104-1.391,0.313-2.047H2.672v10.125c0,0.271,0.091,0.497,0.273,0.68
	c0.182,0.183,0.409,0.274,0.68,0.272h16.703c0.261,0,0.484-0.09,0.672-0.272C21.188,22.78,21.281,22.553,21.281,22.281
	L21.281,22.281z M16.844,13.953c0-1.292-0.471-2.393-1.414-3.305c-0.942-0.912-2.081-1.368-3.414-1.367
	c-1.323,0-2.456,0.456-3.398,1.367c-0.943,0.912-1.414,2.013-1.414,3.305s0.471,2.394,1.414,3.305
	c0.942,0.912,2.075,1.367,3.398,1.367c1.333,0,2.471-0.455,3.414-1.367C16.373,16.347,16.844,15.245,16.844,13.953z M21.281,8.328
	V5.75c0-0.292-0.104-0.545-0.313-0.758c-0.208-0.213-0.464-0.32-0.766-0.32h-2.72c-0.301,0-0.557,0.107-0.766,0.32
	c-0.209,0.213-0.312,0.466-0.312,0.758v2.578c0,0.302,0.104,0.557,0.312,0.766c0.209,0.209,0.465,0.313,0.766,0.313h2.72
	c0.302,0,0.558-0.104,0.766-0.313C21.177,8.885,21.281,8.63,21.281,8.328z M24,5.078v17.844c0,0.844-0.302,1.568-0.906,2.172
	C22.49,25.698,21.766,26,20.922,26H3.078c-0.844,0-1.568-0.302-2.172-0.906C0.302,24.49,0,23.766,0,22.922V5.078
	C0,4.234,0.302,3.51,0.906,2.906C1.51,2.302,2.234,2,3.078,2h17.844c0.844,0,1.568,0.302,2.172,0.906C23.698,3.51,24,4.234,24,5.078
	z"/>
</svg>
